X: 42534
T: Whelan's
R: jig
M: 6/8
K: Edorian
~e2e BAF|FEB AFD|~e2e BAF|dAF FED|
~E2E BAF|FEB AFA|BdB BAF|1 dAF FED:|2 dAF FEd||
BAB ~e2e|fed ~e2d|BAB ~g2e|fdB AFA|
BAB ~e2e|fed ~e2f|gbg eff|1 edB AFA:|2 edB AFD||

